src/assets/Day2.svg

<svg width="94" height="79" viewBox="0 0 94 79" fill="none" xmlns="http://www.w3.org/2000/svg">
<path d="M74.3801 29.8894H4.09969C2.5379 29.8894 1.36656 29.3912 0.58567 28.644C-0.195223 27.8968 -0.195223 26.9005 0.58567 26.1532L11.1277 14.9447L0.58567 3.73618C0.195223 2.98894 0.195223 1.99263 0.58567 1.24539C1.36656 0.498157 2.5379 0 4.09969 0H74.3801C75.5514 0 76.7227 0.249078 77.5036 0.996313L93.1215 13.4502C94.2928 14.4465 94.2928 15.6919 93.1215 16.4392L77.5036 28.8931C76.7227 29.6403 75.5514 29.8894 74.3801 29.8894ZM11.1277 24.9078H72.8183L85.3126 14.9447L72.8183 4.98157H11.1277L19.3271 13.6993C20.108 14.4465 20.108 15.4429 19.3271 16.1901L11.1277 24.9078Z" fill="white"/>
<path d="M11.1277 24.9078H72.8183L85.3126 14.9447L72.8183 4.98157H11.1277L19.3271 13.6993C20.108 14.4465 20.108 15.4429 19.3271 16.1901L11.1277 24.9078Z" fill="white"/>
<path d="M48.343 78.1529H41.3255C39.922 78.1529 38.9863 76.6873 38.9863 74.4889V30.5212C38.9863 28.3228 39.922 26.8572 41.3255 26.8572H48.343C49.7465 26.8572 50.6822 28.3228 50.6822 30.5212V74.4889C50.6822 76.6873 49.7465 78.1529 48.343 78.1529ZM43.6647 70.8249H46.0038V34.1851H43.6647V70.8249Z" fill="white"/>
<path d="M43.6647 70.8249H46.0038V34.1851H43.6647V70.8249Z" fill="white"/>
<path d="M27.4618 19.7361V9.93608H30.6398C31.7878 9.93608 32.7304 10.1368 33.4678 10.5381C34.2144 10.9394 34.7651 11.5088 35.1198 12.2461C35.4838 12.9741 35.6658 13.8421 35.6658 14.8501C35.6658 15.8488 35.4838 16.7168 35.1198 17.4541C34.7651 18.1821 34.2144 18.7468 33.4678 19.1481C32.7304 19.5401 31.7878 19.7361 30.6398 19.7361H27.4618ZM28.9458 18.4761H30.5838C31.4704 18.4761 32.1704 18.3314 32.6838 18.0421C33.2064 17.7528 33.5798 17.3374 33.8038 16.7961C34.0371 16.2548 34.1538 15.6061 34.1538 14.8501C34.1538 14.0941 34.0371 13.4408 33.8038 12.8901C33.5798 12.3394 33.2064 11.9194 32.6838 11.6301C32.1704 11.3314 31.4704 11.1821 30.5838 11.1821H28.9458V18.4761ZM39.6015 19.9041C39.0135 19.9041 38.5282 19.8061 38.1455 19.6101C37.7629 19.4141 37.4782 19.1574 37.2915 18.8401C37.1049 18.5134 37.0115 18.1588 37.0115 17.7761C37.0115 17.1041 37.2729 16.5721 37.7955 16.1801C38.3182 15.7881 39.0649 15.5921 40.0355 15.5921H41.8555V15.4661C41.8555 14.9248 41.7062 14.5188 41.4075 14.2481C41.1182 13.9774 40.7402 13.8421 40.2735 13.8421C39.8629 13.8421 39.5035 13.9448 39.1955 14.1501C38.8969 14.3461 38.7149 14.6401 38.6495 15.0321H37.1655C37.2122 14.5281 37.3802 14.0988 37.6695 13.7441C37.9682 13.3801 38.3415 13.1048 38.7895 12.9181C39.2469 12.7221 39.7462 12.6241 40.2875 12.6241C41.2582 12.6241 42.0095 12.8808 42.5415 13.3941C43.0735 13.8981 43.3395 14.5888 43.3395 15.4661V19.7361H42.0515L41.9255 18.5461C41.7295 18.9288 41.4449 19.2508 41.0715 19.5121C40.6982 19.7734 40.2082 19.9041 39.6015 19.9041ZM39.8955 18.7001C40.2969 18.7001 40.6329 18.6068 40.9035 18.4201C41.1835 18.2241 41.3982 17.9674 41.5475 17.6501C41.7062 17.3328 41.8042 16.9828 41.8415 16.6001H40.1895C39.6015 16.6001 39.1815 16.7028 38.9295 16.9081C38.6869 17.1134 38.5655 17.3701 38.5655 17.6781C38.5655 17.9954 38.6822 18.2474 38.9155 18.4341C39.1582 18.6114 39.4849 18.7001 39.8955 18.7001ZM45.6631 22.8161L47.3291 19.1621H46.9231L44.1791 12.7921H45.7891L47.9171 17.9301L50.1431 12.7921H51.7111L47.2311 22.8161H45.6631ZM56.3185 19.7361V18.6721C56.9532 18.1681 57.5598 17.6594 58.1385 17.1461C58.7172 16.6328 59.2305 16.1288 59.6785 15.6341C60.1358 15.1301 60.4952 14.6401 60.7565 14.1641C61.0178 13.6788 61.1485 13.2121 61.1485 12.7641C61.1485 12.4654 61.0972 12.1854 60.9945 11.9241C60.8918 11.6534 60.7238 11.4388 60.4905 11.2801C60.2572 11.1121 59.9445 11.0281 59.5525 11.0281C58.9645 11.0281 58.5212 11.2148 58.2225 11.5881C57.9332 11.9614 57.7932 12.4094 57.8025 12.9321H56.3605C56.3698 12.2414 56.5145 11.6628 56.7945 11.1961C57.0838 10.7294 57.4665 10.3748 57.9425 10.1321C58.4278 9.88942 58.9738 9.76808 59.5805 9.76808C60.5045 9.76808 61.2418 10.0294 61.7925 10.5521C62.3525 11.0654 62.6325 11.7841 62.6325 12.7081C62.6325 13.2588 62.4972 13.8048 62.2265 14.3461C61.9652 14.8874 61.6198 15.4101 61.1905 15.9141C60.7705 16.4088 60.3178 16.8754 59.8325 17.3141C59.3472 17.7528 58.8852 18.1494 58.4465 18.5041H62.9265V19.7361H56.3185Z" fill="black"/>
</svg>

<?xml version="1.0" encoding="utf-8"?>
<!-- Generator: Adobe Illustrator 27.9.4, SVG Export Plug-In . SVG Version: 9.03 Build 54784)  -->
<svg version="1.1" id="Layer_1" xmlns="http://www.w3.org/2000/svg" xmlns:xlink="http://www.w3.org/1999/xlink" x="0px" y="0px"
	 viewBox="0 0 94 79" style="enable-background:new 0 0 94 79;" xml:space="preserve">
<style type="text/css">
	.st0{fill:#FFFFFF;}
</style>
<path class="st0" d="M74.38,29.89H4.1c-1.56,0-2.73-0.5-3.51-1.25c-0.78-0.75-0.78-1.74,0-2.49l10.54-11.21L0.59,3.74
	c-0.39-0.75-0.39-1.74,0-2.49C1.37,0.5,2.54,0,4.1,0h70.28c1.17,0,2.34,0.25,3.12,1l15.62,12.45c1.17,1,1.17,2.24,0,2.99L77.5,28.89
	C76.72,29.64,75.55,29.89,74.38,29.89z M11.13,24.91h61.69l12.49-9.96L72.82,4.98H11.13l8.2,8.72c0.78,0.75,0.78,1.74,0,2.49
	L11.13,24.91z"/>
<path class="st0" d="M11.13,24.91h61.69l12.49-9.96L72.82,4.98H11.13l8.2,8.72c0.78,0.75,0.78,1.74,0,2.49L11.13,24.91z"/>
<path class="st0" d="M38.99,74.49V30.52c0-2.2,0.94-3.66,2.34-3.66h7.02c1.4,0,2.34,1.47,2.34,3.66v43.97H38.99z M43.66,70.82H46
	V34.19h-2.34V70.82z"/>
<path class="st0" d="M43.66,70.82H46V34.19h-2.34V70.82z"/>
<path d="M27.46,19.74v-9.8h3.18c1.15,0,2.09,0.2,2.83,0.6c0.75,0.4,1.3,0.97,1.65,1.71c0.36,0.73,0.55,1.6,0.55,2.6
	c0,1-0.18,1.87-0.55,2.6c-0.35,0.73-0.91,1.29-1.65,1.69c-0.74,0.39-1.68,0.59-2.83,0.59H27.46z M28.95,18.48h1.64
	c0.89,0,1.59-0.14,2.1-0.43c0.52-0.29,0.9-0.7,1.12-1.25c0.23-0.54,0.35-1.19,0.35-1.95c0-0.76-0.12-1.41-0.35-1.96
	c-0.22-0.55-0.6-0.97-1.12-1.26c-0.51-0.3-1.21-0.45-2.1-0.45h-1.64V18.48z M39.6,19.9c-0.59,0-1.07-0.1-1.46-0.29
	c-0.38-0.2-0.67-0.45-0.85-0.77c-0.19-0.33-0.28-0.68-0.28-1.06c0-0.67,0.26-1.2,0.78-1.6c0.52-0.39,1.27-0.59,2.24-0.59h1.82v-0.13
	c0-0.54-0.15-0.95-0.45-1.22c-0.29-0.27-0.67-0.41-1.13-0.41c-0.41,0-0.77,0.1-1.08,0.31c-0.3,0.2-0.48,0.49-0.55,0.88h-1.48
	c0.05-0.5,0.21-0.93,0.5-1.29c0.3-0.36,0.67-0.64,1.12-0.83c0.46-0.2,0.96-0.29,1.5-0.29c0.97,0,1.72,0.26,2.25,0.77
	c0.53,0.5,0.8,1.19,0.8,2.07v4.27h-1.29l-0.13-1.19c-0.2,0.38-0.48,0.7-0.85,0.97C40.7,19.77,40.21,19.9,39.6,19.9z M39.9,18.7
	c0.4,0,0.74-0.09,1.01-0.28c0.28-0.2,0.49-0.45,0.64-0.77c0.16-0.32,0.26-0.67,0.29-1.05h-1.65c-0.59,0-1.01,0.1-1.26,0.31
	c-0.24,0.21-0.36,0.46-0.36,0.77c0,0.32,0.12,0.57,0.35,0.76C39.16,18.61,39.48,18.7,39.9,18.7z M45.66,22.82l1.67-3.65h-0.41
	l-2.74-6.37h1.61l2.13,5.14l2.23-5.14h1.57l-4.48,10.02H45.66z M56.32,19.74v-1.06c0.63-0.5,1.24-1.01,1.82-1.53
	c0.58-0.51,1.09-1.02,1.54-1.51c0.46-0.5,0.82-0.99,1.08-1.47c0.26-0.49,0.39-0.95,0.39-1.4c0-0.3-0.05-0.58-0.15-0.84
	c-0.1-0.27-0.27-0.49-0.5-0.64c-0.23-0.17-0.55-0.25-0.94-0.25c-0.59,0-1.03,0.19-1.33,0.56c-0.29,0.37-0.43,0.82-0.42,1.34h-1.44
	c0.01-0.69,0.15-1.27,0.43-1.74c0.29-0.47,0.67-0.82,1.15-1.06c0.49-0.24,1.03-0.36,1.64-0.36c0.92,0,1.66,0.26,2.21,0.78
	c0.56,0.51,0.84,1.23,0.84,2.16c0,0.55-0.14,1.1-0.41,1.64c-0.26,0.54-0.61,1.06-1.04,1.57c-0.42,0.49-0.87,0.96-1.36,1.4
	c-0.49,0.44-0.95,0.84-1.39,1.19h4.48v1.23H56.32z"/>
</svg>
